images_breeze_svg/cmd/32/mailmergeemaildocuments.svg

<svg viewBox="0 0 32 32" xmlns="http://www.w3.org/2000/svg"><path d="m9 5v1h18.546875l-11.546875 11.285156-7-6.841797v1.398438l3.070312 3-3.070312 3v1.398437l3.785156-3.699218 3.214844 3.142578 3.214844-3.142578 9.355468 9.142578.429688.408203v.908203h-20v1h21v-2.316406-19.683594zm19.976562 1h.023438v17.707031l-9.070312-8.865234zm-26.976562 7v1h6v-1zm2 3v1h4v-1zm2 3v1h2v-1z" fill="#4d4d4d"/></svg>

<?xml version="1.0" encoding="UTF-8" standalone="no"?>
<svg
   xmlns:dc="http://purl.org/dc/elements/1.1/"
   xmlns:cc="http://creativecommons.org/ns#"
   xmlns:rdf="http://www.w3.org/1999/02/22-rdf-syntax-ns#"
   xmlns:svg="http://www.w3.org/2000/svg"
   xmlns="http://www.w3.org/2000/svg"
   xmlns:sodipodi="http://sodipodi.sourceforge.net/DTD/sodipodi-0.dtd"
   xmlns:inkscape="http://www.inkscape.org/namespaces/inkscape"
   viewBox="0 0 32 32"
   version="1.1"
   id="svg6"
   sodipodi:docname="mailmergeemaildocuments.svg"
   inkscape:version="0.92.4 (unknown)"
   inkscape:export-filename="/home/rizmut/Dokumen/Rizmut/Github/libreoffice-style-breeze/images_breeze/cmd/32/mailmergeemaildocuments.png"
   inkscape:export-xdpi="96"
   inkscape:export-ydpi="96">
  <metadata
     id="metadata10">
    <rdf:RDF>
      <cc:Work
         rdf:about="">
        <dc:format>image/svg+xml</dc:format>
        <dc:type
           rdf:resource="http://purl.org/dc/dcmitype/StillImage" />
        <dc:title></dc:title>
      </cc:Work>
    </rdf:RDF>
  </metadata>
  <sodipodi:namedview
     pagecolor="#ffffff"
     bordercolor="#666666"
     borderopacity="1"
     objecttolerance="10"
     gridtolerance="10"
     guidetolerance="10"
     inkscape:pageopacity="0"
     inkscape:pageshadow="2"
     inkscape:window-width="1360"
     inkscape:window-height="714"
     id="namedview8"
     showgrid="false"
     inkscape:zoom="7.375"
     inkscape:cx="-2.9152542"
     inkscape:cy="16"
     inkscape:window-x="0"
     inkscape:window-y="28"
     inkscape:window-maximized="1"
     inkscape:current-layer="svg6" />
  <defs
     id="defs3051">
    <style
       type="text/css"
       id="current-color-scheme">
      .ColorScheme-Text {
        color:#4d4d4d;
      }
      </style>
  </defs>
  <path
     style="fill:currentColor;fill-opacity:1;stroke:none"
     d="M 9 5 L 9 6 L 27.546875 6 L 16 17.285156 L 9 10.443359 L 9 11.841797 L 12.070312 14.841797 L 9 17.841797 L 9 19.240234 L 12.785156 15.541016 L 16 18.683594 L 19.214844 15.541016 L 28.570312 24.683594 L 29 25.091797 L 29 26 L 9 26 L 9 27 L 30 27 L 30 24.683594 L 30 5 L 9 5 z M 28.976562 6 L 29 6 L 29 23.707031 L 19.929688 14.841797 L 28.976562 6 z M 2 13 L 2 14 L 8 14 L 8 13 L 2 13 z M 4 16 L 4 17 L 8 17 L 8 16 L 4 16 z M 6 19 L 6 20 L 8 20 L 8 19 L 6 19 z "
     class="ColorScheme-Text"
     id="path4" />
</svg>
